assets/icons/signature-upload.svg

<svg width="20" height="20" viewBox="0 0 20 20" fill="none" xmlns="http://www.w3.org/2000/svg">
<path d="M2.5 10C2.5 6.4645 2.5 4.69675 3.598 3.598C4.6975 2.5 6.4645 2.5 10 2.5C13.5355 2.5 15.3032 2.5 16.4012 3.598C17.5 4.6975 17.5 6.4645 17.5 10C17.5 13.5355 17.5 15.3032 16.4012 16.4012C15.304 17.5 13.5355 17.5 10 17.5C6.4645 17.5 4.69675 17.5 3.598 16.4012C2.5 15.304 2.5 13.5355 2.5 10Z" stroke="currentColor" stroke-width="1.3"/>
<path d="M14.2141 7.67432C14.8981 7.67432 15.4526 7.11981 15.4526 6.43579C15.4526 5.75177 14.8981 5.19727 14.2141 5.19727C13.5301 5.19727 12.9756 5.75177 12.9756 6.43579C12.9756 7.11981 13.5301 7.67432 14.2141 7.67432Z" stroke="currentColor" stroke-width="1.3"/>
<path d="M3.67383 16.224C4.97641 12.8951 6.10456 6.02691 9.10423 6.45461C12.1039 6.88231 6.71318 15.7898 8.88414 15.7898C10.4038 15.7898 11.4893 11.2308 12.5748 11.2308C13.6603 11.2308 12.1406 15.1386 13.009 15.1386C14.0945 15.1386 14.7457 13.4018 14.7457 13.4018" stroke="currentColor" stroke-width="1.3" stroke-linecap="round" stroke-linejoin="round"/>
</svg>

<svg xmlns="http://www.w3.org/2000/svg" width="20" height="20" fill="none" viewBox="0 0 20 20"><path stroke="currentColor" stroke-width="1.3" d="M2.5 10c0-3.535 0-5.303 1.098-6.402C4.698 2.5 6.465 2.5 10 2.5s5.303 0 6.401 1.098C17.5 4.698 17.5 6.465 17.5 10s0 5.303-1.099 6.401C15.304 17.5 13.536 17.5 10 17.5s-5.303 0-6.402-1.099C2.5 15.304 2.5 13.536 2.5 10Z"/><path stroke="currentColor" stroke-width="1.3" d="M14.214 7.674a1.239 1.239 0 1 0 0-2.477 1.239 1.239 0 0 0 0 2.477Z"/><path stroke="currentColor" stroke-linecap="round" stroke-linejoin="round" stroke-width="1.3" d="M3.674 16.224c1.302-3.329 2.43-10.197 5.43-9.77 3 .428-2.39 9.336-.22 9.336 1.52 0 2.605-4.56 3.69-4.56 1.086 0-.433 3.909.435 3.909 1.085 0 1.737-1.737 1.737-1.737"/></svg>
